src/asset/24px/angle-left.svg

<svg width="24" height="24" viewBox="0 0 24 24" fill="none" xmlns="http://www.w3.org/2000/svg">
<path fill-rule="evenodd" clip-rule="evenodd" d="M15.7126 3.29289C16.0958 3.68342 16.0958 4.31658 15.7126 4.70711L9.25 11.2929C8.86678 11.6834 8.86678 12.3166 9.25 12.7071L15.7126 19.2929C16.0958 19.6834 16.0958 20.3166 15.7126 20.7071C15.3294 21.0976 14.708 21.0976 14.3248 20.7071L7.86224 14.1213C6.71259 12.9497 6.71258 11.0503 7.86224 9.87868L14.3248 3.29289C14.708 2.90237 15.3294 2.90237 15.7126 3.29289Z" fill="#808080"/>
</svg>

<svg width="24" height="24" fill="none" xmlns="http://www.w3.org/2000/svg"><path fill-rule="evenodd" clip-rule="evenodd" d="M15.713 3.293c.383.39.383 1.024 0 1.414L9.25 11.293a1.014 1.014 0 000 1.414l6.463 6.586c.383.39.383 1.024 0 1.414a.968.968 0 01-1.388 0l-6.463-6.586a3.04 3.04 0 010-4.242l6.463-6.586a.968.968 0 011.388 0z" fill="gray"/></svg>
